assets/img/icons/money.svg

<svg width="24" height="24" fill="none" xmlns="http://www.w3.org/2000/svg"><g clip-path="url(#a)"><path d="M12 13c0 1.657-2.686 3-6 3s-6-1.343-6-3 2.686-3 6-3 6 1.343 6 3Zm0 5.5v2c0 1.995-2.579 3.5-6 3.5s-6-1.505-6-3.5v-2C0 20.471 2.5 22 6 22s6-1.529 6-3.5Zm0-4v2c0 1.995-2.579 3.5-6 3.5s-6-1.505-6-3.5v-2C0 16.471 2.5 18 6 18s6-1.529 6-3.5ZM18 6h-8v2h8V6Zm1-6H9C6.243 0 4 2.243 4 5v3.139A14.071 14.071 0 0 1 6 8c.698 0 1.367.048 2 .139V6c0-1.103.897-2 2-2h8c1.103 0 2 .897 2 2v2c0 1.103-.897 2-2 2h-5.469c.655.574 1.112 1.25 1.328 2h1.14a1 1 0 0 1 1 1v1a1 1 0 0 1-1 1h-1v2h5a1 1 0 1 1 0 2h-5v1.5c0 1.365-.617 2.569-1.687 3.5h6.687c2.757 0 5-2.243 5-5V5c0-2.757-2.242-5-4.999-5Zm1 14a1 1 0 1 1-2 0v-1a1 1 0 1 1 2 0v1Z" fill="#fff"/></g><defs><clipPath id="a"><path fill="#fff" d="M0 0h24v24H0z"/></clipPath></defs></svg>

<svg width="24" height="24" viewBox="0 0 24 24" fill="none" xmlns="http://www.w3.org/2000/svg">
<g clip-path="url(#clip0_324_5327)">
<path d="M12 13C12 14.657 9.314 16 6 16C2.686 16 0 14.657 0 13C0 11.343 2.686 10 6 10C9.314 10 12 11.343 12 13ZM12 18.5V20.5C12 22.495 9.421 24 6 24C2.579 24 0 22.495 0 20.5V18.5C0 20.471 2.5 22 6 22C9.5 22 12 20.471 12 18.5ZM12 14.5V16.5C12 18.495 9.421 20 6 20C2.579 20 0 18.495 0 16.5V14.5C0 16.471 2.5 18 6 18C9.5 18 12 16.471 12 14.5ZM18 6H10V8H18V6ZM19 0H9C6.243 0 4 2.243 4 5V8.139C4.633 8.048 5.302 8 6 8C6.698 8 7.367 8.048 8 8.139V6C8 4.897 8.897 4 10 4H18C19.103 4 20 4.897 20 6V8C20 9.103 19.103 10 18 10H12.531C13.186 10.574 13.643 11.25 13.859 12H14.999C15.552 12 15.999 12.448 15.999 13V14C15.999 14.552 15.552 15 14.999 15H13.999V17H18.999C19.552 17 19.999 17.448 19.999 18C19.999 18.552 19.552 19 18.999 19H13.999V20.5C13.999 21.865 13.382 23.069 12.312 24H18.999C21.756 24 23.999 21.757 23.999 19V5C23.999 2.243 21.757 0 19 0ZM20 14C20 14.552 19.553 15 19 15C18.447 15 18 14.552 18 14V13C18 12.448 18.447 12 19 12C19.553 12 20 12.448 20 13V14Z" fill="white"/>
</g>
<defs>
<clipPath id="clip0_324_5327">
<rect width="24" height="24" fill="white"/>
</clipPath>
</defs>
</svg>
